svg/mic-off-circle.svg

<?xml version="1.0" encoding="UTF-8" standalone="no"?>
<svg
   xmlns:dc="http://purl.org/dc/elements/1.1/"
   xmlns:cc="http://creativecommons.org/ns#"
   xmlns:rdf="http://www.w3.org/1999/02/22-rdf-syntax-ns#"
   xmlns:svg="http://www.w3.org/2000/svg"
   xmlns="http://www.w3.org/2000/svg"
   xmlns:sodipodi="http://sodipodi.sourceforge.net/DTD/sodipodi-0.dtd"
   xmlns:inkscape="http://www.inkscape.org/namespaces/inkscape"
   class="ionicon"
   viewBox="0 0 512 512"
   version="1.1"
   id="svg6"
   sodipodi:docname="mic-off-circle.svg"
   inkscape:version="1.0.2 (e86c8708, 2021-01-15)">
  <metadata
     id="metadata12">
    <rdf:RDF>
      <cc:Work
         rdf:about="">
        <dc:format>image/svg+xml</dc:format>
        <dc:type
           rdf:resource="http://purl.org/dc/dcmitype/StillImage" />
      </cc:Work>
    </rdf:RDF>
  </metadata>
  <defs
     id="defs10" />
  <sodipodi:namedview
     pagecolor="#ffffff"
     bordercolor="#666666"
     borderopacity="1"
     objecttolerance="10"
     gridtolerance="10"
     guidetolerance="10"
     inkscape:pageopacity="0"
     inkscape:pageshadow="2"
     inkscape:window-width="689"
     inkscape:window-height="480"
     id="namedview8"
     showgrid="false"
     inkscape:zoom="1.3027344"
     inkscape:cx="256"
     inkscape:cy="256"
     inkscape:window-x="44"
     inkscape:window-y="25"
     inkscape:window-maximized="0"
     inkscape:current-layer="svg6" />
  <title
     id="title2">Mic Off Circle</title>
  <path
     style="color:#000000;font-style:normal;font-variant:normal;font-weight:normal;font-stretch:normal;font-size:medium;line-height:normal;font-family:sans-serif;font-variant-ligatures:normal;font-variant-position:normal;font-variant-caps:normal;font-variant-numeric:normal;font-variant-alternates:normal;font-variant-east-asian:normal;font-feature-settings:normal;font-variation-settings:normal;text-indent:0;text-align:start;text-decoration:none;text-decoration-line:none;text-decoration-style:solid;text-decoration-color:#000000;letter-spacing:normal;word-spacing:normal;text-transform:none;writing-mode:lr-tb;direction:ltr;text-orientation:mixed;dominant-baseline:auto;baseline-shift:baseline;text-anchor:start;white-space:normal;shape-padding:0;shape-margin:0;inline-size:0;clip-rule:nonzero;display:inline;overflow:visible;visibility:visible;isolation:auto;mix-blend-mode:normal;color-interpolation:sRGB;color-interpolation-filters:linearRGB;solid-color:#000000;solid-opacity:1;vector-effect:none;fill:#000000;fill-opacity:1;fill-rule:nonzero;stroke-width:1;stroke-linecap:butt;stroke-linejoin:miter;stroke-miterlimit:4;stroke-dasharray:none;stroke-dashoffset:0;stroke-opacity:1;color-rendering:auto;image-rendering:auto;shape-rendering:auto;text-rendering:auto;enable-background:accumulate;stop-color:#000000;stop-opacity:1;stroke:none;opacity:1"
     d="M 256,48 C 141.31,48 48,141.31 48,256 48,370.69 141.31,464 256,464 370.69,464 464,370.69 464,256 464,141.31 370.69,48 256,48 Z m 0,80 c 26.47775,0.0769 47.92311,21.52225 48,48 v 64 c -0.002,2.58279 -0.21222,5.16122 -0.63,7.71 -0.28101,1.64939 -2.34241,2.24517 -3.46,1 l -84.42,-92.86 c -1.19742,-1.30971 -1.38877,-3.25178 -0.47,-4.77 8.70807,-14.30544 24.23261,-23.04888 40.98,-23.08 z m 32,256 h -63.55 c -8.61,0 -16,-6.62 -16.43,-15.23 -0.43978,-9.12773 6.84168,-16.76917 15.98,-16.77 h 16 V 334.26 C 221.80619,330.99148 204.8166,322.91962 190.79,310.88 170.94,293.83 160,271.58 160,248.22 V 224 c -0.0551,-9.01311 7.38082,-16.2721 16.39,-16 8.77986,0.35087 15.69266,7.61352 15.61,16.4 v 23.82 c 0,25.66 28,55.48 64,55.48 1.67,0 3.37,-0.09 5.06,-0.24 1.23882,-0.1135 2.45848,0.36472 3.29,1.29 l 21.07,23.19 c 0.98931,1.08407 0.51292,2.82903 -0.89,3.26 -4.10671,1.28769 -8.29202,2.30981 -12.53,3.06 V 352 h 15.55 c 8.61,0 16,6.62 16.43,15.23 0.43978,9.12773 -6.84168,16.76917 -15.98,16.77 z m -77.89,-138.91 36.46,40.11 c 0.67563,0.719 0.0122,1.87829 -0.95,1.66 -19.80493,-4.47042 -34.69395,-20.85834 -37.25,-41 -0.10021,-0.9646 1.09347,-1.49284 1.74,-0.77 z m 152.65,119.75 c -6.53928,5.94194 -16.65712,5.45843 -22.6,-1.08 l -192,-210 c -5.81453,-6.55434 -5.2759,-16.56619 1.20825,-22.45888 6.48415,-5.89269 16.50174,-5.47415 22.47175,0.93888 l 192,210 c 5.94194,6.53928 5.45843,16.65712 -1.08,22.6 z M 352,248.22 c -0.0629,14.47289 -4.1971,28.636 -11.93,40.87 -0.69616,1.14049 -2.29342,1.2907 -3.19,0.3 l -19.19,-21.1 c -1.02554,-1.12846 -1.32029,-2.74182 -0.76,-4.16 2.01419,-5.06325 3.05572,-10.46085 3.07,-15.91 v -23.8 c -0.0781,-8.03551 5.71178,-14.929 13.64,-16.24 9.88,-1.48 18.36,6.51 18.36,16.12 z"
     id="path4" />
</svg>

<svg xmlns="http://www.w3.org/2000/svg" width="512" height="512" viewBox="0 0 512 512"><title>ionicons-v5-g</title><path d="M256,48C141.31,48,48,141.31,48,256s93.31,208,208,208,208-93.31,208-208S370.69,48,256,48Zm0,80h0a48.14,48.14,0,0,1,48,48v64a47.84,47.84,0,0,1-.63,7.71,2,2,0,0,1-3.46,1l-84.42-92.86a4,4,0,0,1-.47-4.77A48.08,48.08,0,0,1,256,128Zm32,256H224.45c-8.61,0-16-6.62-16.43-15.23A16,16,0,0,1,224,352h16V334.26a103.71,103.71,0,0,1-49.21-23.38C170.94,293.83,160,271.58,160,248.22V224a15.91,15.91,0,0,1,16.39-16A16.26,16.26,0,0,1,192,224.4v23.82c0,25.66,28,55.48,64,55.48,1.67,0,3.37-.09,5.06-.24a3.94,3.94,0,0,1,3.29,1.29l21.07,23.19a2,2,0,0,1-.89,3.26A100.33,100.33,0,0,1,272,334.26V352h15.55c8.61,0,16,6.62,16.43,15.23A16,16,0,0,1,288,384ZM210.11,245.09l36.46,40.11a1,1,0,0,1-.95,1.66,48.26,48.26,0,0,1-37.25-41A1,1,0,0,1,210.11,245.09ZM362.76,364.84a16,16,0,0,1-22.6-1.08l-192-210a16,16,0,0,1,23.68-21.52l192,210A16,16,0,0,1,362.76,364.84ZM352,248.22a77.12,77.12,0,0,1-11.93,40.87,2,2,0,0,1-3.19.3l-19.19-21.1a4,4,0,0,1-.76-4.16A43.35,43.35,0,0,0,320,248.22v-23.8a16.3,16.3,0,0,1,13.64-16.24c9.88-1.48,18.36,6.51,18.36,16.12Z"/></svg>
